FINK
CUT[ES WOLLT EIN KNAEBLEIN IN DEN WALD]
REG[Europa, Mitteleuropa, Deutschland]
KEY[F0241  16  F 6/8]
MEL[3_  3_0_3_3_0_3_  4_0_4_4_0_
    4_  4_.54_4_.54_  3__0__.
    34  5_0_5_5_0_5_  6_.7+1_+1_7_
    6_  5_.65_4_3_2_  1__0__. //] >>
FCT[Jugend - Lied, erzaehlend; Tod]
